X: 10529
T: Doonagore, The
R: reel
M: 4/4
K: Gmajor
|:GED G~G2 FD (3Bcd|B G~G2 ABcA|d2 cA B G~G2|(3Bcd cA GFE2|
D G~G2 FD (3Bcd|B G~G2 ABcA|d2 cA B G~G2|(3Bcd cA G2 z:|(3Bcd||
|:g~g2 e fdde|fdge fd d2|g~g2 e fddc|defd g3 z|
g bag f~f2|d (3Bcd BGA F~F2|d2 cA BG G2|(3Bcd cA G3 z:|

